flaticon/productivity-and-development/target-1.svg

<svg xmlns="http://www.w3.org/2000/svg" width="32" height="32" viewBox="0 0 24 24">
    <path d="M 23.257812 24 L 24 23.257812 L 17.644531 16.894531 C 18.871094 15.550781 19.667969 13.8125 19.824219 11.894531 L 22.710938 11.894531 L 22.710938 10.84375 L 19.84375 10.84375 C 19.660156 6.507812 16.199219 3.007812 11.878906 2.769531 L 11.878906 0 L 10.832031 0 L 10.832031 2.773438 C 6.5625 3.066406 3.160156 6.542969 2.976562 10.84375 L 0 10.84375 L 0 11.894531 L 2.996094 11.894531 C 3.332031 16.042969 6.671875 19.351562 10.832031 19.636719 L 10.832031 22.738281 L 11.878906 22.738281 L 11.878906 19.644531 C 13.789062 19.539062 15.527344 18.796875 16.890625 17.625 Z M 18.792969 10.84375 L 16.269531 10.84375 C 16.097656 8.476562 14.230469 6.574219 11.878906 6.347656 L 11.878906 3.820312 C 15.617188 4.054688 18.609375 7.085938 18.792969 10.84375 Z M 10.832031 10.84375 L 7.605469 10.84375 C 7.769531 9.09375 9.113281 7.683594 10.832031 7.421875 Z M 10.832031 11.894531 L 10.832031 14.988281 C 9.222656 14.742188 7.941406 13.488281 7.648438 11.894531 Z M 11.878906 11.894531 L 15.171875 11.894531 C 14.875 13.527344 13.539062 14.800781 11.878906 15.003906 Z M 11.878906 10.84375 L 11.878906 7.40625 C 13.648438 7.625 15.046875 9.058594 15.214844 10.84375 Z M 10.832031 3.828125 L 10.832031 6.363281 C 8.53125 6.636719 6.722656 8.515625 6.550781 10.84375 L 4.027344 10.84375 C 4.207031 7.125 7.144531 4.117188 10.832031 3.828125 Z M 4.050781 11.894531 L 6.585938 11.894531 C 6.894531 14.070312 8.640625 15.789062 10.832031 16.050781 L 10.832031 18.582031 C 7.253906 18.304688 4.382812 15.460938 4.050781 11.894531 Z M 11.878906 18.589844 L 11.878906 16.0625 C 14.121094 15.84375 15.921875 14.105469 16.234375 11.894531 L 18.769531 11.894531 C 18.433594 15.5 15.507812 18.359375 11.878906 18.589844 Z M 11.878906 18.589844"/>
</svg>

<svg xmlns="http://www.w3.org/2000/svg" width="32" height="32" viewBox="0 0 24 24">
    <path d="M23.258 24l.742-.742-6.355-6.363a8.417 8.417 0 0 0 2.18-5h2.886v-1.051h-2.867c-.184-4.336-3.645-7.836-7.965-8.074V0h-1.047v2.773c-4.27.293-7.672 3.77-7.855 8.07H0v1.052h2.996c.336 4.148 3.676 7.457 7.836 7.742v3.101h1.047v-3.093a8.376 8.376 0 0 0 5.012-2.02zm-4.465-13.156H16.27a4.882 4.882 0 0 0-4.391-4.496V3.82c3.738.235 6.73 3.266 6.914 7.024zm-7.961 0H7.605a3.83 3.83 0 0 1 3.227-3.422zm0 1.05v3.094a3.84 3.84 0 0 1-3.184-3.093zm1.047 0h3.293a3.831 3.831 0 0 1-3.293 3.11zm0-1.05V7.406a3.834 3.834 0 0 1 3.336 3.438zm-1.047-7.016v2.535a4.881 4.881 0 0 0-4.281 4.48H4.027a7.41 7.41 0 0 1 6.805-7.015zm-6.781 8.067h2.535a4.886 4.886 0 0 0 4.246 4.156v2.531c-3.578-.277-6.45-3.121-6.781-6.687zm7.828 6.695v-2.527a4.888 4.888 0 0 0 4.355-4.168h2.536c-.336 3.605-3.262 6.464-6.891 6.695zm0 0"/>
</svg>
